modules/themify-icons/icons/package.svg

<?xml version="1.0" encoding="utf-8"?>
<!-- Generated by IcoMoon.io -->
<!DOCTYPE svg PUBLIC "-//W3C//DTD SVG 1.1//EN" "http://www.w3.org/Graphics/SVG/1.1/DTD/svg11.dtd">
<svg version="1.1" xmlns="http://www.w3.org/2000/svg" xmlns:xlink="http://www.w3.org/1999/xlink" width="17" height="17" viewBox="0 0 17 17">
<g>
</g>
	<path d="M8.517-0.035l-8.517 3.221v10.693l8.5 3.188 8.5-3.188v-10.692l-8.483-3.222zM15.084 3.528l-2.586 0.97-6.557-2.489 2.575-0.974 6.568 2.493zM8.5 5.997l-6.581-2.468 2.609-0.986 6.551 2.487-2.579 0.967zM1 4.253l7 2.625v8.932l-7-2.625v-8.932zM9 15.81v-8.932l7-2.625v8.932l-7 2.625z" fill="#000000" />
</svg>

<svg xmlns="http://www.w3.org/2000/svg" width="17" height="17"><path d="M8.517-.035L0 3.186v10.693l8.5 3.188 8.5-3.188V3.187L8.517-.035zm6.567 3.563l-2.586.97-6.557-2.489 2.575-.974 6.568 2.493zM8.5 5.997L1.919 3.529l2.609-.986 6.551 2.487-2.579.967zM1 4.253l7 2.625v8.932l-7-2.625V4.253zM9 15.81V6.878l7-2.625v8.932L9 15.81z"/></svg>
